X:1
T:Rien plus ne quiers
T:Claude Goudimel
T:Source : Livre IX de 27 chansons nouvelles à parties---Paris---N.du Chemin---1551. Editor : André Vierendeels (12/04/18) Notes : Original clefs : C1, C3, C4, F4 Original note values have been halved Editorial accidentals above the staff
T:Rien plus ne quiers
T:#
T:©
T:©
T:©
C:Claude Goudimel
Z:©
%%score [ 1 [ 2 3 ] 4 ]
L:1/8
Q:1/4=120
M:2/2
K:C
V:1 treble nm="Soprano" snm="S"
V:2 treble-8 nm="Tenor 1" snm="T 1"
V:3 treble-8 nm="Tenor 2" snm="T 2"
V:4 bass nm="Bass" snm="B"
V:1
 B8 | c3 B A2 G2- | G2 F2 G4 | z2 d2 d2 d2 | B2 G2 c4 | A2 d3 cBA | B2 cB AG G2- |"^#" G2 F2 G4 | %8
w: Rien|plus _ _ ne|_ _ quiers,|ma da- me|me con- ten-|||* * te,|
w: Au|mon- * * de|n'a _ rien,|tant beau qui|me ten- *|||* * te,|
 z2 B4 B2 | c4 BABc | d2 d2 e3 d | c2 B2 AG G2- |[M:2/4] G2 F2 |[M:2/2] G8 :| z2 c2 c2 c2 | B4 A4 | %16
w: con- tent|ie suis, _ _ _|_ du bien qu'ay|ren- * * * con-||tray,|et si y|a un|
w: rien ne|m'est beau _ _ _|_ au- pres du|beau _ _ _ que-||i'ay,|||
 G3 G A2 c2- | c2 B2 c4 | z2 G2 cBcd | edcB c2 c2 | B2 B2 B2 B2 | c6 B2 | c2 A2 G2 FE | F4 E4 | %24
w: bien que vous di-|* * ray,|car ie _ _ _|_ _ _ _ _ n'ay|peur, car ie n'ay|peur (quel|que cho- se qu'on _|fa- ce)|
w: ||||||||
 c4 B4- | B2 AG A2 B2 | c3 B c2 B2 | A2 G4 F2 | G2 G2 c2 c2 | B6 AG | A2 B2 c3 B | c2 B2 A2 G2- | %32
w: qu'aul- tre|_ _ _ _ que|moy, vers el- le|trou- ve gra-|ce, vers el- le|trou- * *|* ve gra- *||
w: ||||||||
[M:2/4]"^#" G2 F2 |[M:2/2] G8 |] %34
w: |ce.|
w: ||
V:2
 d8 | e8 | d4 B3 A | GABc d4 | z2 g2 g2 e2 | f6 d2 | g3 f e2 c2 | d4 B4 | z2 g4 g2 | edef g4 | %10
w: Rien|plus|ne quiers, _|_ _ _ _ _|ma da- me|me con-|ten- * * *|* te,|con- tent|ie _ _ _ _|
w: Au|mon-|de n'a _|_ _ _ _ _|rien tant beau,|qui me|ten- * * *|* te,|rien ne|ne _ _ _ _|
 g2 g2 edef | g2 f2 fedc |[M:2/4] d2 d2 |[M:2/2] B8 :| z2 g2 g2 g2 | g4 f4 | e3 d f2 g2 | g4 e4- | %18
w: suis du bien _ _ _|_ qu'ay ren- * * *|* con-|tray,|et si y|a un|bien que vous _|di- ray,|
w: m'est beau au- * * *|pres du beau _ _ _|_ que|i'ay,|||||
 e4 z2 e2 | e4 g4 | g4 z2 d2 | e2 e2 d2 d2 | e2 f2 e2 c2- | c2 B2 c4 | g8 | g4 f4 | g3 g g2 g2 | %27
w: _ car|ie n'ay|peur, car|ie n'ay peur (quel|que cho- se qu'on|_ fa- ce)|qu'aul-|tre que|moy, vers el- le|
w: |||||||||
 e2 c2 d4 | B2 d2 edef | g8 | f4 g3 g | g2 g2 e2 c2 |[M:2/4] d4 |[M:2/2] d8 |] %34
w: trou- ve gra-|ce, qu'aul- tre _ _ _|_|que moy vers|el- le trou- ve|gra-|ce.|
w: |||||||
V:3
 z4 G4- | G4 c4 | A4 G2 d2 | d2 d2 B4- | B2 B2 e3 d | cB A2 d3 c | BA G2 cBAG | A4 G4 | z2 d4 d2 | %9
w: Rien|_ plus|ne quiers, ma|da- me me|_ con- ten- *|||* te,|con- tent|
w: Au|_ mon-|de n'a _|rien tant beau|_ qui me _|_ _ _ ten- *||* te,|rien ne|
 c4 d4- | d2 B2 cBcd | e2 d2 cBBA/G/ |[M:2/4] A2 A2 |[M:2/2] G8 :| z2 e2 e2 e2 | d4 d4 | %16
w: ie suis|_ du bien _ _ _|_ qu'ay ren- * * * *|* con-|tray,|et si y|a un|
w: m'est beau|_ au- pres _ _ _|_ du beau _ _ _ _|_ que|i'ay,|||
 B3 B c2 e2 | d4 c2 G2 | cBcd edcB | c4 e4 | dcBA G4- | G4 z2 G2 | G2 F2 G2 A2 | F4 G4 | %24
w: bien que vous _|di- ray, car|ie _ _ _ _ _ _ _|_ n'ay|peur, _ _ _ _|_ (quel|que cho- se qu'on|fa- ce)|
w: ||||||||
 z2 G2 GABc | d4 d4 | e3 d e2 d2 | cB BA/G/ A4 | G4 z2 G2 | GABc d4 | d4 e3 d | e2 d2 cB BA/G/ | %32
w: qu'aul- tre _ _ _|_ que|moy, vers el- le|trou- * ve _ _ gra-|ce, qu'aul-|tre _ _ _ _|que moy, vers|el- le trou- * ve _ _|
w: ||||||||
[M:2/4] A4 |[M:2/2] G8 |] %34
w: gra-|ce.|
w: ||
V:4
 G,,8 | C,8 | D,4 G,,4- | G,,4 z2 G,2 | G,2 G,2 E,2 C,2 | F,4 D,2 G,2- | G,F,E,D, C,2 E,2 | %7
w: Rien|plus|ne quiers,|_ ma|da- me me con-|ten- * *||
w: Au|mon-|de n'a|_ rien|tant beau, qui me|ten- * *||
 D,4 G,,4 | z2 G,4 G,2 | A,4 G,4 | G,4 C,4- | C,2 D,2 F,2 G,2 |[M:2/4] D,4 |[M:2/2] G,,8 :| %14
w: * te,|con- tent|ie suis|du bien|_ qu'ay ren- *|con-|tray,|
w: * te,|rien ne|m'est beau|au- pres|_ du beau _|que|i'ay,|
 z2 C,2 C,2 C,2 | G,4 D,4 | E,3 G, F,2 C,2 | G,4 C,4- | C,8 | z2 C,2 C,2 C,2 | G,2 G,,2 G,,2 G,,2 | %21
w: et si y|a un|bien que vous _|di- ray,|_|car ie n'ay|peur, car ie n'ay|
w: |||||||
 C,D,E,F, G,2 G,,2 | C,2 D,2 E,2 F,2 | D,4 C,4 | C,4 G,4- | G,2 F,E, D,2 D,2 | C,3 G,, C,2 G,2 | %27
w: peur _ _ _ _ (quel|que cho- se qu'on|fa- ce)|qu'aul- tre|_ _ _ _ que|moy, vers el- le|
w: ||||||
 C,2 E,2 D,4 | G,,4 z2 C,2 | G,6 F,E, | D,2 D,2 C,3 G,, | C,2 G,2 C,2 E,2 |[M:2/4] D,4 | %33
w: trou- ve gra-|ce, qu'aul-|tre _ _|_ que moy, vers|el- le trou- ve|gra-|
w: ||||||
[M:2/2] G,,8 |] %34
w: ce.|
w: |

